X: 23
T:General Monk's March, Bledington 3
M:4/4
L:1/8
S:Bond
A:Bledington
P:A(AB)4A
K:D
P:A
|:D2 DF  E2EG|F2 dB  A2G2|F>AF>D E>GE>C|1D2 D>D D2A,2:|2D2D>D D4||
P:B
|:A>BA>G F2F2|G>AG>F E2E2|A>BA>G F2 F2 | G>AB>G E2E2 |
  D2 DF  E2EG|F2 dB  A2G2|F>AF>D E>GE>C| D2 D>D D4  :|

